X:232
T:Andy Dowy's Reel
O:england
R:Reel
S:Lucy Farr, Galway (fiddle).
D:Lucy Farr - 'Hearth and Home'
H:A version of 'Dulaman Na Binne Buidhe?'
Q:350
M:4/4
K:G
|: edBA GABd | edBd g2fg | edBA GABd | eBdB A2Bd :|
eaag eaag | gedB GABd | eaag eaag | gedB A2Bd :|


